X: 587
T: Achonry Lasses, The
R: reel
M: 4/4
K: Gmajor
|G3B A~=F3|dBcA BGAF|GBAF DEFA|dBcA (3Bcd AF|
~G3B A~=F3|dBcA BGAF|GBAF DEFA|dBcA BG G2|
[B3g3]g f~d3|e(c{d}cB) cdef|g2 ag f(d{e}dB)|cedc BG G2|
gbag fddf|e(c{d}cB) cdef|gbag fafd|cedc (3Bcd AF|

